X:1
T:Title
%%score { ( 1 3 ) | ( 2 4 ) }
L:1/8
M:9/8
K:Bb
V:1 treble nm="Grand Piano"
V:3 treble 
V:2 bass 
V:4 bass 
V:1
 z3 z3[Q:1/4=100] [DF][DF][DF] | [DB]3- [DB][DF][DF] G2 B | F6 [DF][DF][DB] | %3
 [Fd]3- [Fd][Fc][FB] c2 d | c6 ccd | e3- edc B2 c | d6 [Gc][GB]G | F3- F[DB][DB] A2 c | [DB]6 z3 | %9
[M:4/4] [DF]2 [DF]>[DF] [DF]2 [DB]2 | G6 z2 | B2 B>B [=Ed]2 cB | c6 z2 | %13
 [Fd][Fd][Fd][Ec] [DB]2 [FB]2 |[M:9/8] [Gc]2 [GB]- [GB] G2 B3 |[M:4/4] B2 F>B d2 c2 | %16
[M:3/4] [DB]6 |] %17
V:2
 z3 z3 [B,,B,][B,,B,][B,,B,] | [B,,F,]3- [B,,F,][B,,B,][B,,B,] [E,B,E]2 [G,B,E] | %2
 [B,D]6 [B,,B,][B,,B,][B,,B,] | [B,,B,]3- [B,,B,][C,A,][D,B,] [F,A,F]2 [F,B,F] | %4
 [F,A,F]6 [F,A,F][F,A,F][F,B,F] | [F,CF]3- [F,CF][F,B,F][F,A,E][K:treble] [G,B,D]2 [F,A,F] | %6
 [B,F]6[K:bass] [E,B,][E,B,][E,B,E] | [D,B,]3- [D,B,][B,,F,][B,,F,] [F,C]2 [F,E] | [B,,F,]6 z3 | %9
[M:4/4] [B,,B,]2 [B,,B,]>[B,,B,] [B,,B,]2 [B,,B,]2 | [E,B,E]2 [D,=B,]2 [C,C]2 [F,CE]2 | %11
 [G,B,D]2 [G,B,D]>[G,B,D] [C,B,]2 [C,B,]2 | [F,A,F]6 z2 | %13
 [B,,B,][B,,B,][B,,B,][B,,B,] [B,,B,]2 [D,B,]2 |[M:9/8] z3 z E2 z3 | %15
[M:4/4] [F,DF]2 [F,B,D]>[F,B,D] [F,B,F]2 [F,A,E]2 |[M:3/4] [B,,B,]6 |] %17
V:3
 x9 | x9 | x9 | x9 | x9 | x9 | x9 | x9 | x9 |[M:4/4] x8 | z2 F2 E2 A2 | z4 z2 =E2 | x8 | x8 | %14
[M:9/8] x9 |[M:4/4] x8 |[M:3/4] x6 |] %17
V:4
 x9 | x9 | x9 | x9 | x9 | x6[K:treble] x3 | x6[K:bass] x3 | x9 | x9 |[M:4/4] x8 | x8 | x8 | x8 | %13
 x8 |[M:9/8] [E,B,]2 [E,B,]- [E,B,] [E,B,]2- [E,B,G]3 |[M:4/4] x8 |[M:3/4] x6 |] %17

